X: 21833
T: Kinyon's
R: jig
M: 6/8
K: Gminor
d2f cdA|G2B AFD|GFD DGA|BAB BAB|
dcA def|cdA GAB|F2A G2B|cAF G3:|
|:dgg a3|bgg f3|dcA fec|cfe d2c|
dgg dBB|cAA cdA|G2B F2A|cAF G3:|

